X:1
T:Title
%%score { 1 | 2 }
L:1/8
M:6/8
K:Eb
V:1 treble nm="Grand Piano"
V:2 bass 
V:1
 z3 z2[Q:1/4=100] E | G2 G G2 [FA] | [GB]3 [FA]2 [EG] | [DF][DF][DF] [EG]2 [FA] | G3- G2 E | %5
 G2 G G2 [FA] | [GB]3 [FA]2 [EG] | [DF][DF][DF] [DG]2 [DF] | E6 | [DF][DF][DF] [DF]3 | GGG G3 | %11
 =AAA B2 c | [DB]3 .[Fd]3 | [DF][DF][DF] [DF]3 | GGG G3 | =AAA B2 c | [DB]6 |] %17
V:2
 z3 z2 [E,G,] | [E,B,E]2 [E,B,E] [E,B,E]2 [E,B,] | [E,B,]3 [E,B,]2 [E,B,] | %3
 [B,,B,][B,,B,][B,,B,] [B,,B,]2 [B,,B,] | [E,B,E]3- [E,B,E]2 [E,G,] | %5
 [E,B,E]2 [E,B,E] [E,B,E]2 [E,B,] | [E,B,]3 [E,B,]2 [E,B,] | %7
 [B,,B,][B,,B,][B,,B,] [B,,B,]2 [B,,A,] | [E,G,]6 | [B,,B,][B,,B,][B,,B,] [B,,B,]3 | %10
 [E,B,E][E,B,E][E,B,E] [E,B,E]3 | [F,E][F,=A,E][F,CE] [F,B,D]2 [F,A,E] | [B,,B,]3 .[B,,B,]3 | %13
 [B,,B,][B,,B,][B,,B,] [B,,B,]3 | [E,B,E][E,B,E][E,B,E] [E,B,E]3 | %15
 [F,E][F,=A,E][F,CE] [F,B,D]2 [F,A,E] | [B,,B,]6 |] %17

